
cps(90/120)

d1 $ stack [
  sound "bd(4,7)" # up "-3",
  sound "hh(5,7)",
  sound "cp(2,7)" # gain "0.8",
  striate 32 $ sound "d:0 [~ d:7 ~]" # gain "1.1",
  jux(striate 32) $ sound "arpy:3*16" # gain "0.7" # up "-12",
  sound "sinelong2:4" # cut "1" # end "0.3" # gain "1.3"
]

hush
